svgs/sharp-light/person-seat.svg

<svg xmlns="http://www.w3.org/2000/svg" viewBox="0 0 384 512"><!--! Font Awesome Pro 6.4.2 by @fontawesome - https://fontawesome.com License - https://fontawesome.com/license (Commercial License) Copyright 2023 Fonticons, Inc. --><path d="M128 88a24 24 0 1 0 48 0 24 24 0 1 0 -48 0zm24 56a56 56 0 1 1 0-112 56 56 0 1 1 0 112zM32 144V416H208h16v32H208 16 0V432 144 128H32v16zm56 32h16 88 16v16 32h64 16v32H272 208v72h64 13.1l2.6 12.9L309.1 448H368h16v32H368 296 282.9l-2.6-12.9L258.9 360H208 176 136c-26.5 0-48-21.5-48-48V192 176zm88 80V224 208H120V312c0 8.8 7.2 16 16 16h40V256z"/></svg>

<svg xmlns="http://www.w3.org/2000/svg" viewBox="0 0 384 512"><!--! Font Awesome Pro 6.6.0 by @fontawesome - https://fontawesome.com License - https://fontawesome.com/license (Commercial License) Copyright 2024 Fonticons, Inc. --><path d="M128 88a24 24 0 1 0 48 0 24 24 0 1 0 -48 0zm24 56a56 56 0 1 1 0-112 56 56 0 1 1 0 112zM32 144l0 272 176 0 16 0 0 32-16 0L16 448 0 448l0-16L0 144l0-16 32 0 0 16zm56 32l16 0 88 0 16 0 0 16 0 32 64 0 16 0 0 32-16 0-64 0 0 72 64 0 13.1 0 2.6 12.9L309.1 448l58.9 0 16 0 0 32-16 0-72 0-13.1 0-2.6-12.9L258.9 360 208 360l-32 0-40 0c-26.5 0-48-21.5-48-48l0-120 0-16zm88 80l0-32 0-16-56 0 0 104c0 8.8 7.2 16 16 16l40 0 0-72z"/></svg>
